kueku.co.id-dicsubpro-webdasar/assets/images/instagram.svg

<svg height="512pt" viewBox="0 0 512 512" width="512pt" xmlns="http://www.w3.org/2000/svg"><path d="m376 91h-240c-24.8125 0-45 20.1875-45 45v240c0 24.8125 20.1875 45 45 45h240c24.8125 0 45-20.1875 45-45v-240c0-24.8125-20.1875-45-45-45zm-120 270c-57.890625 0-105-47.109375-105-105s47.109375-105 105-105 105 47.109375 105 105-47.109375 105-105 105zm105-180c-16.539062 0-30-13.460938-30-30s13.460938-30 30-30 30 13.460938 30 30-13.460938 30-30 30zm0 0"/><path d="m256 181c-41.351562 0-75 33.648438-75 75s33.648438 75 75 75 75-33.648438 75-75-33.648438-75-75-75zm0 0"/><path d="m436 0h-360c-41.351562 0-76 34.648438-76 76v360c0 41.351562 34.648438 76 76 76h360c41.351562 0 76-34.648438 76-76v-360c0-41.351562-34.648438-76-76-76zm15 376c0 41.351562-33.648438 75-75 75h-240c-41.351562 0-75-33.648438-75-75v-240c0-41.351562 33.648438-75 75-75h240c41.351562 0 75 33.648438 75 75zm0 0"/></svg>

<svg width="512" height="512" viewBox="0 0 512 512" fill="none" xmlns="http://www.w3.org/2000/svg">
<path d="M376 91H136C111.188 91 91 111.188 91 136V376C91 400.812 111.188 421 136 421H376C400.812 421 421 400.812 421 376V136C421 111.188 400.812 91 376 91ZM256 361C198.109 361 151 313.891 151 256C151 198.109 198.109 151 256 151C313.891 151 361 198.109 361 256C361 313.891 313.891 361 256 361ZM361 181C344.461 181 331 167.539 331 151C331 134.461 344.461 121 361 121C377.539 121 391 134.461 391 151C391 167.539 377.539 181 361 181Z" fill="#FD7530"/>
<path d="M256 181C214.648 181 181 214.648 181 256C181 297.352 214.648 331 256 331C297.352 331 331 297.352 331 256C331 214.648 297.352 181 256 181Z" fill="#FD7530"/>
<path d="M436 0H76C34.6484 0 0 34.6484 0 76V436C0 477.352 34.6484 512 76 512H436C477.352 512 512 477.352 512 436V76C512 34.6484 477.352 0 436 0ZM451 376C451 417.352 417.352 451 376 451H136C94.6484 451 61 417.352 61 376V136C61 94.6484 94.6484 61 136 61H376C417.352 61 451 94.6484 451 136V376Z" fill="#FD7530"/>
</svg>
